X:1
T:O Blessèd Word
T:O Blessèd Word
T:John Robson Sweney
T:Leander Whitcomb  Munhall, 1889
T:Public Domain Courtesy of the Cyber Hymnal™
T:Public Domain Courtesy of the Cyber Hymnal™
C:John Robson Sweney
Z:Public Domain
Z:Courtesy of the Cyber Hymnal™
%%score ( 1 2 ) ( 3 4 )
L:1/8
M:9/8
K:Ab
V:1 treble 
V:2 treble 
V:3 bass 
V:4 bass 
V:1
 [CE] [Ec]2 [DG] | [CA]3- [CA]2 [Ec] [DB]2 [CA] | [CE]3- [CE]3 [CE]3 | %3
w: 1.~E- ter- nal|life * is in God’s|Word * For|
w: 2.~God’s strength is|in * His ho- ly|Word; * We|
w: 3.~By this same|Word * we know our|task, * And|
 [B,E]3- [B,E]2 [DG] [DF]2 [DE] | [Ec]3- [Ec]2 [Ec] [Ee]2 [Ec] | [EA]3- [EA]2 [Ac] [GB]2 [_Gc] | %6
w: dead * and dy- ing|men; * By it a-|lone * we know the|
w: need * it ev- ery|day; * In all our|con- * flicts this the|
w: how * it should be|done; * How now to|live, * and how at|
 [Fd]3- [Fd]3 [DF]3 | [CE]3- [CE]2 [EA] [EG]2 [EB] | [EA]3- [EA]2 ||[M:12/8]"^Refrain" E (EG) B | %10
w: Lord, * Un-|seen * by mor- tal|ken. *||
w: sword * Our|spir- * it foes to|slay. *|O bless- * èd|
w: last * Our|crown * is to be|won. *||
 (z2 G d3-) [Gd]2 E (EA)B | z2 c3- [Ec]3 [Ec]3 x | e3- e3- A (ed) c (cB)A | %13
w: |||
w: * * Word, O gra- * cious|* Word, We’ll|* * love * * * thee * more|
w: |||
 B3- B3- !fermata!B2 E (Ec)G | z2 A3- [EA]2 [CA] ([CA] [Ec])[_Ge] x | [Fd]3- [Fd]3- [Fd]3 [DF]3 | %16
w: |||
w: and * * more; Be * thou|* our life, our * strength,|* * * our|
w: |||
 E3- E3- E2 A G2 B |"^riten." A3- A3- [EA]2 |] %18
w: ||
w: sword, * * * ’Till earth-|ly * strife|
w: ||
V:2
 x4 | x9 | x9 | x9 | x9 | x9 | x9 | x9 | x5 ||[M:12/8] x4 | d3- G2 G x6 | c3 E E2 E x5 | %12
 (E2 E A2 E2) A2 x4 | G2 G A2 A x6 | A3 E E2 E x5 | x12 | (C2 C C2 C C3) E3 | E2 E F2 F x2 |] %18
V:3
 [A,,A,] [A,,A,]2 [A,,E,] | [A,,E,]3- [A,,E,]2 [A,,A,] [A,,E,]2 [A,,E,] | %2
 [A,,A,]3- [A,,A,]3 [A,,A,]3 | [E,G,]3- [E,G,]2 [E,B,] [E,A,]2 [E,G,] | %4
 [A,,A,]3- [A,,A,]2 A, [A,C]2 A, | [A,C]3- [A,C]2 [A,E] [E,D]2 A, | [D,A,]3- [D,A,]3 [D,A,]3 | %7
 [E,A,]3- [E,A,]2 [E,C] [E,B,]2 [E,D] | [A,,C]3- [A,,C]2 ||[M:12/8] z z2 z | %10
 z2 ([E,B,] B,2) B, [E,B,]2 z z2 z | z2 ([A,,A,] A,2) ([E,A,] [A,,A,]3) A,3 | %12
 C3- C3- (CB,)A, (ED)C x | E3 ([F,=D]2 [F,D] !fermata![G,_D]2) z z2 z | %14
 z2 ([A,,C] [A,,C]2 [A,,C] [A,,C]2) z z2 z | z2 ([D,A,] [D,A,]2 [D,A,] [D,A,]3) [D,A,]3 | %16
 ([E,A,]2 [E,A,] [E,A,]2 [E,A,] [E,A,]3) [E,D]3 | ([A,,C]2 [A,,C] [D,D]2 [D,D] [A,,C]2) |] %18
V:4
 x4 | x9 | x9 | x9 | x5 A, x A, x | x8 A, | x9 | x9 | x5 ||[M:12/8] x4 | x3 E,F,B, x6 | %11
 x3 (A,,C, x3 A,3) x | (A,2 A, A,2 A, A,2) A,3 x2 | E,2 E, x9 | x12 | x12 | x12 | x8 |] %18

